src/Brands/wordpress/dark-other.svg

<svg height="430pt" viewBox="130 120 1100 1000" width="430pt" xmlns="http://www.w3.org/2000/svg" xmlns:xlink="http://www.w3.org/1999/xlink"><clipPath id="a"><path d="m0 1000h1000v-1000h-1000z" transform="matrix(1 0 0 -1 0 1000)"/></clipPath><clipPath id="b"><path d="m0 0h1000v1000h-1000z" transform="matrix(1 0 0 -1 0 1000)"/></clipPath><g clip-path="url(#a)"><g clip-path="url(#b)" opacity="0"><path d="m1000 0h-1000v1000h1000z" fill="#fff" transform="matrix(1 0 0 -1 0 1000)"/></g><g fill="#32373c"><path d="m0 0c-184.095 0-333.333-149.238-333.333-333.333s149.238-333.334 333.333-333.334 333.333 149.239 333.333 333.334-149.238 333.333-333.333 333.333m0-20c42.309 0 83.341-8.282 121.957-24.615 18.562-7.851 36.467-17.57 53.217-28.885 16.596-11.212 32.202-24.089 46.386-38.273s27.061-29.791 38.273-46.386c11.316-16.75 21.034-34.655 28.885-53.217 16.334-38.616 24.615-79.649 24.615-121.957 0-42.309-8.281-83.341-24.615-121.957-7.851-18.562-17.569-36.467-28.885-53.217-11.212-16.596-24.089-32.202-38.273-46.386s-29.79-27.061-46.386-38.273c-16.75-11.316-34.655-21.034-53.217-28.885-38.616-16.334-79.648-24.616-121.957-24.616-42.308 0-83.341 8.282-121.957 24.616-18.562 7.851-36.467 17.569-53.217 28.885-16.595 11.212-32.202 24.089-46.386 38.273s-27.061 29.79-38.273 46.386c-11.315 16.75-21.034 34.655-28.885 53.217-16.333 38.616-24.615 79.648-24.615 121.957 0 42.308 8.282 83.341 24.615 121.957 7.851 18.562 17.57 36.467 28.885 53.217 11.212 16.595 24.089 32.202 38.273 46.386s29.791 27.061 46.386 38.273c16.75 11.315 34.655 21.034 53.217 28.885 38.616 16.333 79.649 24.615 121.957 24.615" transform="matrix(1 0 0 -1 499.9999 166.66669)"/><path d="m0 0c1.193-8.846 1.867-18.337 1.867-28.561 0-28.177-5.279-59.864-21.129-99.49l-84.839-245.297c82.583 48.146 138.12 137.615 138.12 240.091 0 48.294-12.342 93.696-34.019 133.257m-238.879-157.554-83.356-242.173c24.894-7.324 51.212-11.318 78.476-11.318 32.347 0 63.379 5.583 92.249 15.749-.743 1.188-1.428 2.45-1.993 3.828zm182.643 38.306c0 34.34-12.335 58.108-22.899 76.605-14.082 22.892-27.287 42.259-27.287 65.15 0 25.53 19.361 49.298 46.647 49.298 1.233 0 2.4-.148 3.597-.224-49.421 45.282-115.265 72.929-187.581 72.929-97.049 0-182.421-49.795-232.091-125.197 6.522-.207 12.667-.337 17.877-.337 29.048 0 74.035 3.531 74.035 3.531 14.966.877 16.735-21.122 1.776-22.891 0 0-15.053-1.763-31.789-2.639l101.15-300.884 60.797 182.31-43.275 118.574c-14.966.876-29.134 2.639-29.134 2.639-14.974.884-13.22 23.768 1.762 22.891 0 0 45.863-3.531 73.156-3.531 29.048 0 74.042 3.531 74.042 3.531 14.974.877 16.736-21.122 1.77-22.891 0 0-15.068-1.763-31.79-2.639l100.386-298.592 28.656 90.801c12.731 39.683 20.195 67.798 20.195 91.566m-465.301-14.009c0-109.945 63.89-204.968 156.56-249.989l-132.507 363.034c-15.413-34.543-24.053-72.773-24.053-113.045" transform="matrix(1 0 0 -1 743.7592 366.73243)"/></g></g></svg>

<svg xmlns="http://www.w3.org/2000/svg" xmlns:xlink="http://www.w3.org/1999/xlink" version="1.1" width="430pt" height="430pt" viewBox="130 120 1100 1000">
<defs>
<clipPath id="clip_0">
<path transform="matrix(1,0,0,-1,0,1000)" d="M0 1000H1000V0H0Z"/>
</clipPath>
<clipPath id="clip_1">
<path transform="matrix(1,0,0,-1,0,1000)" d="M0 0H1000V1000H0Z"/>
</clipPath>
</defs>
<g>
<g id="layer_1" data-name="Legend  (Ignore content)">
</g>
<g id="layer_1" data-name="Word Mark">
</g>
<g id="layer_1" data-name="W Mark">
<g clip-path="url(#clip_0)">
<g opacity="0">
<g clip-path="url(#clip_1)">
<path transform="matrix(1,0,0,-1,0,1000)" d="M1000 0H0V1000H1000Z" fill="#ffffff"/>
</g>
</g>
<path transform="matrix(1,0,0,-1,499.9999,166.66669)" d="M0 0C-184.095 0-333.333-149.238-333.333-333.333-333.333-517.428-184.095-666.667 0-666.667 184.095-666.667 333.333-517.428 333.333-333.333 333.333-149.238 184.095 0 0 0M0-20C42.309-20 83.341-28.282 121.957-44.615 140.519-52.466 158.424-62.185 175.174-73.5 191.77-84.712 207.376-97.589 221.56-111.773 235.744-125.957 248.621-141.564 259.833-158.159 271.149-174.909 280.867-192.814 288.718-211.376 305.052-249.992 313.333-291.025 313.333-333.333 313.333-375.642 305.052-416.674 288.718-455.29 280.867-473.852 271.149-491.757 259.833-508.507 248.621-525.103 235.744-540.709 221.56-554.893 207.376-569.077 191.77-581.954 175.174-593.166 158.424-604.482 140.519-614.2 121.957-622.051 83.341-638.385 42.309-646.667 0-646.667-42.308-646.667-83.341-638.385-121.957-622.051-140.519-614.2-158.424-604.482-175.174-593.166-191.769-581.954-207.376-569.077-221.56-554.893-235.744-540.709-248.621-525.103-259.833-508.507-271.148-491.757-280.867-473.852-288.718-455.29-305.051-416.674-313.333-375.642-313.333-333.333-313.333-291.025-305.051-249.992-288.718-211.376-280.867-192.814-271.148-174.909-259.833-158.159-248.621-141.564-235.744-125.957-221.56-111.773-207.376-97.589-191.769-84.712-175.174-73.5-158.424-62.185-140.519-52.466-121.957-44.615-83.341-28.282-42.308-20 0-20" fill="#32373c"/>
<path transform="matrix(1,0,0,-1,743.7592,366.73243)" d="M0 0C1.193-8.846 1.867-18.337 1.867-28.561 1.867-56.738-3.412-88.425-19.262-128.051L-104.101-373.348C-21.518-325.202 34.019-235.733 34.019-133.257 34.019-84.963 21.677-39.561 0 0M-238.879-157.554-322.235-399.727C-297.341-407.051-271.023-411.045-243.759-411.045-211.412-411.045-180.38-405.462-151.51-395.296-152.253-394.108-152.938-392.846-153.503-391.468ZM-56.236-119.248C-56.236-84.908-68.571-61.14-79.135-42.643-93.217-19.751-106.422-.384-106.422 22.507-106.422 48.037-87.061 71.805-59.775 71.805-58.542 71.805-57.375 71.657-56.178 71.581-105.599 116.863-171.443 144.51-243.759 144.51-340.808 144.51-426.18 94.715-475.85 19.313-469.328 19.106-463.183 18.976-457.973 18.976-428.925 18.976-383.938 22.507-383.938 22.507-368.972 23.384-367.203 1.385-382.162-.384-382.162-.384-397.215-2.147-413.951-3.023L-312.801-303.907-252.004-121.597-295.279-3.023C-310.245-2.147-324.413-.384-324.413-.384-339.387 .5-337.633 23.384-322.651 22.507-322.651 22.507-276.788 18.976-249.495 18.976-220.447 18.976-175.453 22.507-175.453 22.507-160.479 23.384-158.717 1.385-173.683-.384-173.683-.384-188.751-2.147-205.473-3.023L-105.087-301.615-76.431-210.814C-63.7-171.131-56.236-143.016-56.236-119.248M-521.537-133.257C-521.537-243.202-457.647-338.225-364.977-383.246L-497.484-20.212C-512.897-54.755-521.537-92.985-521.537-133.257" fill="#32373c"/>
</g>
<g id="layer_1" data-name="Alternative">
</g>
<g id="layer_1" data-name="Standard">
</g>
</g>
</g>
</svg>
